X: 1134
T: Swedish Rhapsody
M: 4/4
L: 1/8
R: polka
K: G Major
K: G
|: D2 |
G2 Bd g>ba>f | g2 f2 c4 | e2 d2 F4 | e2 d2 G4 | 
G2 Bd g>ba>f | g2 f2 c4 | e2 d2 c2 F2 | G4 G2 :|
|: (3GBd |
g2 g4 g2 |f6 (3FAc | e2 e4 e2 |d6 D2 |
D2 F>A e2 d2 |[1 F4 F2 E2 | D2 (3FGA e2 d2 |[1 B6 :|
[2 F6 e>f | g2 (3fgf e2 f2 | g6 ||
|: e2 |
d2 B>d g4 | e2 c>e a3 g | f2 d2 e2 f2 | e>fe>d B2 c2 |
d2 B>d g4 | e2 c>e a3 g | f2 d2 e2 f2 | g4 g2 :|
